render/icons/openai.svg

<svg width="40" height="40" viewBox="0 0 40 40" fill="none" xmlns="http://www.w3.org/2000/svg">
<rect width="40" height="40" rx="8" fill="white"/>
<path d="M32.1902 17.4058C32.4306 16.6802 32.5532 15.9204 32.5533 15.1556C32.5532 13.8901 32.2177 12.6475 31.5812 11.5554C30.3023 9.31886 27.9298 7.93804 25.3621 7.93804C24.8569 7.93804 24.3509 7.99165 23.8571 8.09815C23.1918 7.3451 22.3752 6.74229 21.4611 6.32946C20.5469 5.91663 19.5561 5.70316 18.5539 5.70312H18.5089C18.5043 5.70328 18.4972 5.70328 18.492 5.70328C15.3821 5.70328 12.6242 7.7193 11.6681 10.6914C9.66606 11.1026 7.93777 12.364 6.9273 14.1472C6.29279 15.2459 5.95841 16.4935 5.95801 17.7637C5.95826 19.5488 6.61787 21.2702 7.8091 22.5948C7.56864 23.3204 7.446 24.0802 7.4459 24.845C7.44601 26.1105 7.78151 27.3531 8.41793 28.4452C9.69676 30.6824 12.0695 32.0624 14.6375 32.0624C15.1431 32.0624 15.6472 32.0088 16.1416 31.9023C16.807 32.6553 17.6237 33.2582 18.5379 33.671C19.4521 34.0838 20.443 34.2973 21.4453 34.2974H21.4903L21.5086 34.2973C24.6202 34.2973 27.3772 32.2813 28.3333 29.3065C30.3354 28.8951 32.0636 27.6338 33.0741 25.8505C33.7079 24.7528 34.0417 23.5063 34.0415 22.2373C34.0413 20.4522 33.3817 18.7308 32.1905 17.4062L32.1902 17.4058ZM21.4921 32.428H21.4848C20.2397 32.4276 19.0341 31.9888 18.0777 31.1879C18.1345 31.1572 18.1906 31.1252 18.2461 31.0921L23.9132 27.8034C24.0547 27.7225 24.1722 27.6055 24.2541 27.4642C24.3359 27.3229 24.379 27.1623 24.379 26.9988V18.9667L26.7744 20.3562C26.7999 20.369 26.8174 20.3938 26.821 20.4222V27.0695C26.8177 30.0247 24.434 32.4221 21.4921 32.428ZM10.0321 27.5109C9.56397 26.6977 9.31737 25.775 9.31707 24.8356C9.31707 24.5292 9.34371 24.2221 9.39559 23.9203C9.4377 23.9456 9.51121 23.9907 9.56395 24.0211L15.2311 27.3098C15.3725 27.3925 15.5331 27.4361 15.6967 27.4361C15.8603 27.4361 16.0209 27.3924 16.1622 27.3096L23.0812 23.296V26.0751C23.082 26.0893 23.0793 26.1034 23.0733 26.1163C23.0673 26.1292 23.0583 26.1404 23.047 26.1489L17.3181 29.4719C16.5074 29.9406 15.5886 30.1874 14.6532 30.1878C13.717 30.1876 12.7972 29.9402 11.9861 29.4703C11.1751 29.0004 10.5012 28.3246 10.0321 27.5106L10.0321 27.5109ZM8.54121 15.0817C9.16361 13.9955 10.1464 13.1639 11.3176 12.7323C11.3176 12.7813 11.3148 12.8681 11.3148 12.9285V19.5058L11.3147 19.5113C11.3148 19.6746 11.3578 19.835 11.4395 19.9761C11.5212 20.1173 11.6386 20.2343 11.7799 20.3151L18.6989 24.3282L16.3036 25.7177C16.2917 25.7255 16.2782 25.7303 16.2641 25.7316C16.25 25.7328 16.2358 25.7306 16.2228 25.725L10.4933 22.3991C9.68335 21.9277 9.01092 21.2508 8.54342 20.4361C8.07592 19.6214 7.82978 18.6975 7.82965 17.7571C7.83003 16.8182 8.07549 15.8958 8.54152 15.0819L8.54121 15.0817ZM28.2214 19.6827L21.3025 15.6691L23.6979 14.2801C23.7097 14.2723 23.7232 14.2675 23.7373 14.2662C23.7514 14.2649 23.7656 14.2672 23.7786 14.2727L29.5081 17.5958C31.1572 18.5529 32.1746 20.3229 32.1746 22.2369C32.1746 24.4819 30.7802 26.4908 28.6836 27.2662V20.4921C28.6839 20.4896 28.6839 20.487 28.6839 20.4846C28.6839 20.1534 28.5072 19.8473 28.2214 19.6827ZM30.6057 16.0778C30.5636 16.0518 30.49 16.0073 30.4373 15.9768L24.7701 12.6881C24.6288 12.6054 24.4682 12.5618 24.3046 12.5617C24.1412 12.5617 23.9804 12.6055 23.8393 12.6881L16.9202 16.7017V13.9227L16.9201 13.9179C16.9201 13.9045 16.9232 13.8913 16.9292 13.8793C16.9352 13.8673 16.9438 13.8569 16.9545 13.8488L22.6834 10.5286C23.4938 10.0592 24.4127 9.81214 25.3481 9.81207C28.2937 9.81207 30.6825 12.212 30.6825 15.1712C30.6824 15.4749 30.6566 15.778 30.6057 16.0774V16.0778ZM15.6179 21.031L13.222 19.6415C13.2094 19.6352 13.1986 19.6259 13.1905 19.6144C13.1823 19.6029 13.1772 19.5895 13.1754 19.5755V12.9283C13.1767 9.97054 15.5655 7.57268 18.5099 7.57268C19.7569 7.57297 20.9645 8.01182 21.9231 8.81309C21.8663 8.84395 21.8102 8.87593 21.7547 8.909L16.0875 12.1976C15.9461 12.2784 15.8286 12.3954 15.7468 12.5367C15.665 12.678 15.6219 12.8385 15.6218 13.0019V13.0073L15.6179 21.031ZM16.9191 18.2125L20.0007 16.4244L23.0823 18.2114V21.7864L20.0007 23.5733L16.9191 21.7864V18.2125Z" fill="black"/>
</svg>

<svg xmlns="http://www.w3.org/2000/svg" width="40" height="40" fill="none">
  <rect width="40" height="40" fill="#fff" rx="8"/>
  <path fill="#000" d="M32.19 17.406a7.158 7.158 0 0 0-.609-5.85 7.168 7.168 0 0 0-7.724-3.458 7.064 7.064 0 0 0-5.303-2.395h-.062a7.177 7.177 0 0 0-6.824 4.988 7.095 7.095 0 0 0-4.74 3.456 7.227 7.227 0 0 0 .882 8.448 7.157 7.157 0 0 0 .608 5.85 7.167 7.167 0 0 0 7.724 3.457 7.066 7.066 0 0 0 5.304 2.395h.063a7.175 7.175 0 0 0 6.824-4.99 7.095 7.095 0 0 0 4.741-3.456 7.226 7.226 0 0 0-.884-8.444v-.001ZM21.492 32.428h-.007a5.31 5.31 0 0 1-3.407-1.24c.056-.03.113-.063.168-.096l5.667-3.289A.924.924 0 0 0 24.38 27v-8.032l2.395 1.39a.086.086 0 0 1 .047.065v6.648c-.003 2.955-2.387 5.352-5.329 5.358Zm-11.46-4.917a5.366 5.366 0 0 1-.636-3.59c.042.025.115.07.168.1l5.667 3.289a.922.922 0 0 0 .931 0l6.92-4.014v2.78a.086.086 0 0 1-.035.073l-5.729 3.323a5.322 5.322 0 0 1-5.332-.002 5.354 5.354 0 0 1-1.954-1.96Zm-1.49-12.43a5.322 5.322 0 0 1 2.776-2.349l-.003.197v6.582a.929.929 0 0 0 .465.804l6.919 4.013-2.395 1.39a.086.086 0 0 1-.081.007l-5.73-3.326a5.354 5.354 0 0 1-1.95-1.963 5.385 5.385 0 0 1-.001-5.354Zm19.68 4.602-6.92-4.014 2.396-1.389a.086.086 0 0 1 .08-.007l5.73 3.323a5.366 5.366 0 0 1 2.667 4.64 5.36 5.36 0 0 1-3.491 5.03v-6.781a.926.926 0 0 0-.463-.802Zm2.384-3.605a8.054 8.054 0 0 0-.169-.101l-5.667-3.289a.923.923 0 0 0-.93 0l-6.92 4.014v-2.784a.086.086 0 0 1 .034-.07l5.73-3.32a5.317 5.317 0 0 1 2.664-.716c2.946 0 5.335 2.4 5.335 5.36 0 .303-.026.606-.077.905ZM15.618 21.03l-2.396-1.39a.085.085 0 0 1-.047-.065v-6.648c.002-2.957 2.39-5.355 5.335-5.355 1.247 0 2.454.439 3.413 1.24a3.47 3.47 0 0 0-.168.096l-5.668 3.289a.923.923 0 0 0-.465.804v.005l-.004 8.024Zm1.301-2.819 3.082-1.788 3.081 1.787v3.575l-3.081 1.787-3.082-1.787v-3.574Z"/>
</svg>
